public/skills/firebase.svg

<svg width="256" height="351" viewBox="0 0 256 351" fill="none" xmlns="http://www.w3.org/2000/svg">
<path d="M0 282.998L2.12251 280.026L102.527 89.5119L102.739 87.4951L58.4788 4.35812C54.7706 -2.6061 44.3313 -0.845305 43.1143 6.95059L0 282.998Z" fill="#FFC24A"/>
<path d="M1.25195 280.732L2.85756 277.601L102.21 89.0837L58.0605 5.60859C54.3912 -1.28266 45.0733 0.474059 43.8691 8.18828L1.25195 280.732Z" fill="#FFA712"/>
<g filter="url(#filter0_i)">
<path d="M1.25195 280.732L2.85756 277.601L102.21 89.0837L58.0605 5.60859C54.3912 -1.28266 45.0733 0.474059 43.8691 8.18828L1.25195 280.732Z" fill="#FCA20E"/>
</g>
<path d="M135.006 150.381L167.961 116.63L134.996 53.6996C131.867 47.7428 123.13 47.7256 120.033 53.6996L102.422 87.2884V90.1491L135.006 150.381Z" fill="#F4BD62"/>
<path d="M134.418 148.974L166.457 116.161L134.418 55.1542C131.376 49.3631 123.985 48.7564 120.975 54.5642L103.27 88.6734L102.74 90.4171L134.418 148.974Z" fill="#FFA50E"/>
<g filter="url(#filter1_i)">
<path d="M134.418 148.974L166.457 116.161L134.418 55.1542C131.376 49.3631 123.985 48.7564 120.975 54.5642L103.27 88.6734L102.74 90.4171L134.418 148.974Z" fill="#FCA20E"/>
</g>
<path d="M0 282.997L0.962097 282.03L4.45771 280.609L132.935 152.609L134.563 148.178L102.513 87.1045L0 282.997Z" fill="#F6820C"/>
<path d="M139.121 347.551L255.396 282.703L222.191 78.209C221.153 71.8109 213.303 69.2815 208.724 73.8691L0 282.998L115.608 347.545C122.914 351.625 131.813 351.627 139.121 347.551Z" fill="#FDE068"/>
<path d="M254.354 282.16L221.402 79.2184C220.371 72.8688 213.843 70.2414 209.299 74.7942L1.28906 282.601L115.627 346.51C122.878 350.558 131.709 350.56 138.961 346.516L254.354 282.16Z" fill="#FCCA3F"/>
<path d="M139.121 345.641C131.813 349.717 122.914 349.715 115.608 345.635L0.931157 282.015L0 282.998L115.608 347.546C122.914 351.625 131.813 351.627 139.121 347.552L255.396 282.704L255.111 280.952L139.121 345.641Z" fill="#EEAB37"/>
<defs>
<filter id="filter0_i" x="1.25195" y="1.30176" width="100.958" height="279.43" filterUnits="userSpaceOnUse" color-interpolation-filters="sRGB">
<feFlood flood-opacity="0" result="BackgroundImageFix"/>
<feBlend mode="normal" in="SourceGraphic" in2="BackgroundImageFix" result="shape"/>
<feColorMatrix in="SourceAlpha" type="matrix" values="0 0 0 0 0 0 0 0 0 0 0 0 0 0 0 0 0 0 127 0" result="hardAlpha"/>
<feOffset/>
<feGaussianBlur stdDeviation="17.5"/>
<feComposite in2="hardAlpha" operator="arithmetic" k2="-1" k3="1"/>
<feColorMatrix type="matrix" values="0 0 0 0 0 0 0 0 0 0 0 0 0 0 0 0 0 0 0.06 0"/>
<feBlend mode="normal" in2="shape" result="effect1_innerShadow"/>
</filter>
<filter id="filter1_i" x="102.74" y="43.498" width="64.7163" height="105.476" filterUnits="userSpaceOnUse" color-interpolation-filters="sRGB">
<feFlood flood-opacity="0" result="BackgroundImageFix"/>
<feBlend mode="normal" in="SourceGraphic" in2="BackgroundImageFix" result="shape"/>
<feColorMatrix in="SourceAlpha" type="matrix" values="0 0 0 0 0 0 0 0 0 0 0 0 0 0 0 0 0 0 127 0" result="hardAlpha"/>
<feOffset dx="1" dy="-9"/>
<feGaussianBlur stdDeviation="3.5"/>
<feComposite in2="hardAlpha" operator="arithmetic" k2="-1" k3="1"/>
<feColorMatrix type="matrix" values="0 0 0 0 0 0 0 0 0 0 0 0 0 0 0 0 0 0 0.09 0"/>
<feBlend mode="normal" in2="shape" result="effect1_innerShadow"/>
</filter>
</defs>
</svg>

<svg xmlns="http://www.w3.org/2000/svg" xmlns:xlink="http://www.w3.org/1999/xlink" width="1823" height="2500" preserveAspectRatio="xMidYMid" viewBox="0 0 256 351"><defs><filter id="b" width="200%" height="200%" x="-50%" y="-50%" filterUnits="objectBoundingBox"><feGaussianBlur in="SourceAlpha" result="shadowBlurInner1" stdDeviation="17.5"/><feOffset in="shadowBlurInner1" result="shadowOffsetInner1"/><feComposite in="shadowOffsetInner1" in2="SourceAlpha" k2="-1" k3="1" operator="arithmetic" result="shadowInnerInner1"/><feColorMatrix in="shadowInnerInner1" values="0 0 0 0 0 0 0 0 0 0 0 0 0 0 0 0 0 0 0.06 0"/></filter><filter id="d" width="200%" height="200%" x="-50%" y="-50%" filterUnits="objectBoundingBox"><feGaussianBlur in="SourceAlpha" result="shadowBlurInner1" stdDeviation="3.5"/><feOffset dx="1" dy="-9" in="shadowBlurInner1" result="shadowOffsetInner1"/><feComposite in="shadowOffsetInner1" in2="SourceAlpha" k2="-1" k3="1" operator="arithmetic" result="shadowInnerInner1"/><feColorMatrix in="shadowInnerInner1" values="0 0 0 0 0 0 0 0 0 0 0 0 0 0 0 0 0 0 0.09 0"/></filter><path id="a" d="M1.253 280.732l1.605-3.131 99.353-188.518-44.15-83.475C54.392-1.283 45.074.474 43.87 8.188L1.253 280.732z"/><path id="c" d="M134.417 148.974l32.039-32.812-32.039-61.007c-3.042-5.791-10.433-6.398-13.443-.59l-17.705 34.109-.53 1.744 31.678 58.556z"/></defs><path fill="#FFC24A" d="M0 282.998l2.123-2.972L102.527 89.512l.212-2.017L58.48 4.358C54.77-2.606 44.33-.845 43.114 6.951L0 282.998z"/><use fill="#FFA712" fill-rule="evenodd" xlink:href="#a"/><use filter="url(#b)" xlink:href="#a"/><path fill="#F4BD62" d="M135.005 150.38l32.955-33.75-32.965-62.93c-3.129-5.957-11.866-5.975-14.962 0L102.42 87.287v2.86l32.584 60.233z"/><use fill="#FFA50E" fill-rule="evenodd" xlink:href="#c"/><use filter="url(#d)" xlink:href="#c"/><path fill="#F6820C" d="M0 282.998l.962-.968 3.496-1.42 128.477-128 1.628-4.431-32.05-61.074z"/><path fill="#FDE068" d="M139.121 347.551l116.275-64.847-33.204-204.495c-1.039-6.398-8.888-8.927-13.468-4.34L0 282.998l115.608 64.548a24.126 24.126 0 0 0 23.513.005"/><path fill="#FCCA3F" d="M254.354 282.16L221.402 79.218c-1.03-6.35-7.558-8.977-12.103-4.424L1.29 282.6l114.339 63.908a23.943 23.943 0 0 0 23.334.006l115.392-64.355z"/><path fill="#EEAB37" d="M139.12 345.64a24.126 24.126 0 0 1-23.512-.005L.931 282.015l-.93.983 115.607 64.548a24.126 24.126 0 0 0 23.513.005l116.275-64.847-.285-1.752-115.99 64.689z"/></svg>
